**harm	**harte	**silbe	**silbe	**rhyme	**timestamp	**phrase	**leadinstrument	**kern
*M4/4	*M4/4	*	*	*	*	*	*	*
*	*	*	*	*	*	*	*	*
*	*	*	*	*	*	*	*	*
*f:	*f:	*	*	*	*f:	*f:	*f:	*f:
*	*	*	*	*	*	*	*	*
*	*	*	*	*	*	*	*	*
1r;	N	.	.	.	0	.	r	1r;
=1	=1	=1	=1	=1	=1	=1	=1	=1
*>Letter>A	*>Letter>A	*>Letter>A	*>Letter>A	*>Letter>A	*>Letter>A	*>Letter>A	*>Letter>A	*>Letter>A
*>Label>Intro	*>Label>Intro	*>Label>Intro	*>Label>Intro	*>Label>Intro	*>Label>Intro	*>Label>Intro	*>Label>Intro	*>Label>Intro
1i7	F:min7	.	.	.	0.418	newline	guitar	1F 1a- 1cc 1ee
=2	=2	=2	=2	=2	=2	=2	=2	=2
2i7f	F:min7/4	.	.	.	2.243	.	guitar	1F 1a- 1cc 1ee
4i7b	F:min7/b3	.	.	.	3.155	.	guitar	4f 4A- 4cc 4ee
4i7e	F:min7/2	.	.	.	3.611	.	guitar	4F 4a- 4cc 4ee
=3	=3	=3	=3	=3	=3	=3	=3	=3
1i7	F:min7	.	.	.	4.067	.	guitar	1F 1a- 1cc 1ee
=4	=4	=4	=4	=4	=4	=4	=4	=4
2i7f	F:min7/4	.	.	.	5.892	.	guitar	2F 2a- 2cc 2ee
4i7b	F:min7/b3	.	.	.	6.804	.	guitar	4.f 4.A- 4.cc 4.ee
.	.	Girl	.	.	.	.	.	.
4i7e	F:min7/2	.	.	.	7.261	.	guitar	8F 8a- 8cc 8ee
.	.	you	.	.	.	.	.	.
=5	=5	=5	=5	=5	=5	=5	=5	=5
*>Letter>B	*>Letter>B	*>Letter>B	*>Letter>B	*>Letter>B	*>Letter>B	*>Letter>B	*>Letter>B	*>Letter>B
*>Label>Verse	*>Label>Verse	*>Label>Verse	*>Label>Verse	*>Label>Verse	*>Label>Verse	*>Label>Verse	*>Label>Verse	*>Label>Verse
1i7	F:min7	thought	.	.	7.717	newline	voice	1F 1a- 1cc 1ee
.	.	you	.	.	.	.	.	.
.	.	found	.	.	.	.	.	.
.	.	the	.	.	.	.	.	.
.	.	an-	.	.	.	.	.	.
.	.	-swer	.	.	.	.	.	.
.	.	on	.	.	.	.	.	.
.	.	that	.	.	.	.	.	.
=6	=6	=6	=6	=6	=6	=6	=6	=6
2i7f	F:min7/4	mag-	.	.	9.526	.	voice	2F 2a- 2cc 2ee
.	.	-ic	.	.	.	.	.	.
.	.	car-	.	.	.	.	.	.
.	.	-pet	.	.	.	.	.	.
4i7b	F:min7/b3	ride	.	.	10.43	.	voice	4.f 4.A- 4.cc 4.ee
.	.	last	.	.	.	.	.	.
4i7e	F:min7/2	.	.	.	10.882	.	voice	8F 8a- 8cc 8ee
.	.	night	.	A	.	.	.	.
=7	=7	=7	=7	=7	=7	=7	=7	=7
1i7	F:min7	_	.	.	11.335	.	voice	1F 1a- 1cc 1ee
.	.	.	.	.	.	.	.	.
=8	=8	=8	=8	=8	=8	=8	=8	=8
2i7f	F:min7/4	.	.	.	13.144	.	voice	2F 2a- 2cc 2ee
4i7b	F:min7/b3	.	.	.	14.048	.	voice	4f 4A- 4cc 4ee
.	.	But	.	.	.	.	.	.
4i7e	F:min7/2	when	.	.	14.5	.	voice	4F 4a- 4cc 4ee
.	.	you	.	.	.	.	.	.
=9	=9	=9	=9	=9	=9	=9	=9	=9
1i7	F:min7	wake	.	.	14.953	newline	voice	1F 1a- 1cc 1ee
.	.	up	.	.	.	.	.	.
.	.	.	.	.	.	.	.	.
.	.	in	.	.	.	.	.	.
.	.	the	.	.	.	.	.	.
.	.	mor-	.	.	.	.	.	.
.	.	_	.	.	.	.	.	.
.	.	-nin'	.	.	.	.	.	.
.	.	the	.	.	.	.	.	.
.	.	world	.	.	.	.	.	.
=10	=10	=10	=10	=10	=10	=10	=10	=10
2i7f	F:min7/4	_	.	.	16.782	.	voice	2F 2a- 2cc 2ee
.	.	still	.	.	.	.	.	.
4i7b	F:min7/b3	gets	.	.	17.697	.	voice	4f 4A- 4cc 4ee
.	.	you	.	.	.	.	.	.
4i7e	F:min7/2	up-	.	.	18.154	.	voice	4F 4a- 4cc 4ee
.	.	-tight	.	A	.	.	.	.
=11	=11	=11	=11	=11	=11	=11	=11	=11
1i7	F:min7	_	.	.	18.611	.	voice	1F 1a- 1cc 1ee
.	.	.	.	.	.	.	.	.
=12	=12	=12	=12	=12	=12	=12	=12	=12
2i7f	F:min7/4	.	.	.	20.441	.	voice	2F 2a- 2cc 2ee
4i7b	F:min7/b3	.	.	.	21.356	.	voice	4.f 4.A- 4.cc 4.ee
.	.	Well	.	.	.	.	.	.
4i7e	F:min7/2	.	.	.	21.813	.	voice	8F 8a- 8cc 8ee
.	.	there's	.	.	.	.	.	.
=13	=13	=13	=13	=13	=13	=13	=13	=13
1-VI	D-:maj	noth-	.	.	22.27	newline	voice	1D-- 1f- 1a--
.	.	-in'	.	.	.	.	.	.
.	.	that	.	.	.	.	.	.
.	.	uh	.	.	.	.	.	.
.	.	you	.	.	.	.	.	.
.	.	ain't	.	.	.	.	.	.
.	.	tried	.	A	.	.	.	.
=14	=14	=14	=14	=14	=14	=14	=14	=14
1-VI	D-:maj	_	.	.	24.074	.	voice	1D-- 1f- 1a--
.	.	.	.	.	.	.	.	.
.	.	.	.	.	.	.	.	.
.	.	To	.	.	.	.	.	.
=15	=15	=15	=15	=15	=15	=15	=15	=15
1i	F:min	fill	.	.	25.878	.	voice	1F 1a- 1cc
.	.	the	.	.	.	.	.	.
.	.	em-	.	.	.	.	.	.
.	.	-pti-	.	.	.	.	.	.
.	.	-ness	.	.	.	.	.	.
.	.	in	.	.	.	.	.	.
.	.	side	.	A	.	.	.	.
=16	=16	=16	=16	=16	=16	=16	=16	=16
2i	F:minmaj7	_	.	.	27.681	.	voice	2F 2a- 2cc
.	.	.	.	.	.	.	.	.
2i7	F:min7	.	.	.	28.583	.	voice	2F 2a- 2cc 2ee
.	.	When	.	.	.	.	.	.
.	.	you	.	.	.	.	.	.
=17	=17	=17	=17	=17	=17	=17	=17	=17
1-VI	D-:maj	come	.	.	29.485	newline	voice	1D-- 1f- 1a--
.	.	back	.	.	.	.	.	.
.	.	down	.	.	.	.	.	.
.	.	_	.	.	.	.	.	.
.	.	girl	.	.	.	.	.	.
.	.	.	.	.	.	.	.	.
=18	=18	=18	=18	=18	=18	=18	=18	=18
1-VI	D-:maj	Still	.	.	31.284	.	voice	1D-- 1f- 1a--
.	.	ain't	.	.	.	.	.	.
.	.	.	.	.	.	.	.	.
.	.	feel-	.	.	.	.	.	.
.	.	-in'	.	.	.	.	.	.
.	.	right	.	A	.	.	.	.
=19	=19	=19	=19	=19	=19	=19	=19	=19
1V7	C:7	_	.	.	33.082	.	voice	1C 1e 1g 1b-
.	.	.	.	.	.	.	.	.
=20	=20	=20	=20	=20	=20	=20	=20	=20
1V7	C:7	.	.	.	34.88	.	voice	1C 1e 1g 1b-
.	.	And	.	.	.	.	.	.
.	.	don't	.	.	.	.	.	.
.	.	it	.	.	.	.	.	.
.	.	seem	.	.	.	.	.	.
.	.	like	.	A	.	.	.	.
=21	=21	=21	=21	=21	=21	=21	=21	=21
*>Letter>C	*>Letter>C	*>Letter>C	*>Letter>C	*>Letter>C	*>Letter>C	*>Letter>C	*>Letter>C	*>Letter>C
*>Label>Chorus	*>Label>Chorus	*>Label>Chorus	*>Label>Chorus	*>Label>Chorus	*>Label>Chorus	*>Label>Chorus	*>Label>Chorus	*>Label>Chorus
1-III	A-:maj	Kicks	Kicks	.	36.679	newline	voice	1A-- 1cc- 1ee--
.	.	just	just	.	.	.	.	.
.	.	keep	keep	.	.	.	.	.
.	.	get-	get-	.	.	.	.	.
.	.	-tin'	-tin'	.	.	.	.	.
=22	=22	=22	=22	=22	=22	=22	=22	=22
1-VI	D-:maj	har-	har-	.	38.489	.	voice	1D-- 1f- 1a--
.	.	-der	-der	.	.	.	.	.
.	.	to	to	.	.	.	.	.
.	.	find	find	A	.	.	.	.
.	.	.	.	.	.	.	.	.
.	.	and	and	.	.	.	.	.
.	.	all	all	.	.	.	.	.
.	.	your	your	.	.	.	.	.
=23	=23	=23	=23	=23	=23	=23	=23	=23
1-III	A-:maj	kicks	kicks	.	40.299	.	voice	1A-- 1cc- 1ee--
.	.	ain't	ain't	.	.	.	.	.
.	.	bring-	bring-	.	.	.	.	.
.	.	-in'	-in'	.	.	.	.	.
=24	=24	=24	=24	=24	=24	=24	=24	=24
1-VI	D-:maj	you	you	.	42.11	.	voice	1D-- 1f- 1a--
.	.	piece	piece	.	.	.	.	.
.	.	of	of	.	.	.	.	.
.	.	mind	mind	A	.	.	.	.
.	.	.	.	.	.	.	.	.
.	.	Be-	Be-	.	.	.	.	.
.	.	-fore	-fore	.	.	.	.	.
.	.	you	you	.	.	.	.	.
=25	=25	=25	=25	=25	=25	=25	=25	=25
1-III	A-:maj	find	find	A	43.92	newline	voice	1A-- 1cc- 1ee--
.	.	out	out	.	.	.	.	.
.	.	it's	it's	.	.	.	.	.
.	.	too	too	.	.	.	.	.
.	.	late	late	B	.	.	.	.
=26	=26	=26	=26	=26	=26	=26	=26	=26
1-III	A-:maj	.	.	.	45.738	.	voice	1A-- 1cc- 1ee--
.	.	girl	girl	.	.	.	.	.
.	.	you	you	.	.	.	.	.
.	.	be-	be-	.	.	.	.	.
.	.	-tter	-tter	.	.	.	.	.
.	.	get	get	.	.	.	.	.
=27	=27	=27	=27	=27	=27	=27	=27	=27
1V7	C:7	straight	straight	B	47.556	.	voice	1C 1e 1g 1b-
=28	=28	=28	=28	=28	=28	=28	=28	=28
1V7	C:7	_	_	.	49.374	.	voice	1C 1e 1g 1b-
.	.	No	.	.	.	.	.	.
.	.	but	.	.	.	.	.	.
.	.	not	.	.	.	.	.	.
.	.	with	.	.	.	.	.	.
=29	=29	=29	=29	=29	=29	=29	=29	=29
*>Letter>A	*>Letter>A	*>Letter>A	*>Letter>A	*>Letter>A	*>Letter>A	*>Letter>A	*>Letter>A	*>Letter>A
*>Label>Trans	*>Label>Trans	*>Label>Trans	*>Label>Trans	*>Label>Trans	*>Label>Trans	*>Label>Trans	*>Label>Trans	*>Label>Trans
1i7	F:min7	kicks	.	.	51.192	newline	guitar	1F 1a- 1cc 1ee
.	.	.	.	.	.	.	.	.
=30	=30	=30	=30	=30	=30	=30	=30	=30
2i7f	F:min7/4	.	.	.	53.018	.	guitar	2F 2a- 2cc 2ee
.	.	You	.	.	.	.	.	.
4i7b	F:min7/b3	just	.	.	53.932	.	guitar	4f 4A- 4cc 4ee
4i7e	F:min7/2	need	.	.	54.388	.	guitar	4F 4a- 4cc 4ee
.	.	.	.	.	.	.	.	.
=31	=31	=31	=31	=31	=31	=31	=31	=31
1i7	F:min7	help	.	.	54.845	.	guitar	1F 1a- 1cc 1ee
.	.	girl	.	.	.	.	.	.
.	.	.	.	.	.	.	.	.
=32	=32	=32	=32	=32	=32	=32	=32	=32
2i7f	F:min7/4	.	.	.	56.672	.	guitar	2F 2a- 2cc 2ee
4i7b	F:min7/b3	.	.	.	57.585	.	guitar	4.f 4.A- 4.cc 4.ee
.	.	Well	.	.	.	.	.	.
4i7e	F:min7/2	.	.	.	58.042	.	guitar	8F 8a- 8cc 8ee
.	.	you	.	.	.	.	.	.
=33	=33	=33	=33	=33	=33	=33	=33	=33
*>Letter>B	*>Letter>B	*>Letter>B	*>Letter>B	*>Letter>B	*>Letter>B	*>Letter>B	*>Letter>B	*>Letter>B
*>Label>Verse	*>Label>Verse	*>Label>Verse	*>Label>Verse	*>Label>Verse	*>Label>Verse	*>Label>Verse	*>Label>Verse	*>Label>Verse
1i7	F:min7	think	.	.	58.498	newline	voice	1F 1a- 1cc 1ee
.	.	you're	.	.	.	.	.	.
.	.	gon-	.	.	.	.	.	.
.	.	-na	.	.	.	.	.	.
.	.	find	.	.	.	.	.	.
.	.	your-	.	.	.	.	.	.
.	.	-self	.	.	.	.	.	.
.	.	a	.	.	.	.	.	.
=34	=34	=34	=34	=34	=34	=34	=34	=34
2i7f	F:min7/4	lit-	.	.	60.318	.	voice	2F 2a- 2cc 2ee
.	.	-tle	.	.	.	.	.	.
.	.	piece	.	.	.	.	.	.
.	.	of	.	.	.	.	.	.
4i7b	F:min7/b3	par-	.	.	61.228	.	voice	4.f 4.A- 4.cc 4.ee
.	.	-a-	.	.	.	.	.	.
4i7e	F:min7/2	.	.	.	61.682	.	voice	8F 8a- 8cc 8ee
.	.	-dise	.	A	.	.	.	.
=35	=35	=35	=35	=35	=35	=35	=35	=35
1i7	F:min7	_	.	.	62.137	.	voice	1F 1a- 1cc 1ee
.	.	.	.	.	.	.	.	.
=36	=36	=36	=36	=36	=36	=36	=36	=36
2i7f	F:min7/4	.	.	.	63.957	.	voice	2.F 2.a- 2.cc 2.ee
4i7b	F:min7/b3	.	.	.	64.866	.	voice	4f 4A- 4cc 4ee
4i7e	F:min7/2	But	.	.	65.321	.	voice	4F 4a- 4cc 4ee
.	.	it	.	.	.	.	.	.
.	.	ain't	.	.	.	.	.	.
=37	=37	=37	=37	=37	=37	=37	=37	=37
1i7	F:min7	_	.	.	65.776	newline	voice	1F 1a- 1cc 1ee
.	.	hap-	.	.	.	.	.	.
.	.	-pened	.	.	.	.	.	.
.	.	yet	.	.	.	.	.	.
.	.	.	.	.	.	.	.	.
.	.	so	.	.	.	.	.	.
=38	=38	=38	=38	=38	=38	=38	=38	=38
2i7f	F:min7/4	girl	.	.	67.598	.	voice	2F 2a- 2cc 2ee
.	.	you	.	.	.	.	.	.
4i7b	F:min7/b3	be-	.	.	68.509	.	voice	4f 4A- 4cc 4ee
.	.	-tter	.	.	.	.	.	.
4i7e	F:min7/2	think	.	.	68.965	.	voice	4F 4a- 4cc 4ee
=39	=39	=39	=39	=39	=39	=39	=39	=39
1i7	F:min7	twice	.	A	69.42	.	voice	1F 1a- 1cc 1ee
.	.	.	.	.	.	.	.	.
=40	=40	=40	=40	=40	=40	=40	=40	=40
2i7f	F:min7/4	.	.	.	71.243	.	voice	2F 2a- 2cc 2ee
4i7b	F:min7/b3	.	.	.	72.154	.	voice	4f 4A- 4cc 4ee
4i7e	F:min7/2	Don't	.	.	72.609	.	voice	4F 4a- 4cc 4ee
.	.	you	.	.	.	.	.	.
=41	=41	=41	=41	=41	=41	=41	=41	=41
1-VI	D-:maj	see	.	.	73.065	newline	voice	1D-- 1f- 1a--
.	.	no	.	.	.	.	.	.
.	.	mat-	.	.	.	.	.	.
.	.	-ter	.	.	.	.	.	.
.	.	.	.	.	.	.	.	.
.	.	what	.	.	.	.	.	.
.	.	you	.	.	.	.	.	.
=42	=42	=42	=42	=42	=42	=42	=42	=42
1-VI	D-:maj	do	.	C	74.868	.	voice	1D-- 1f- 1a--
.	.	_	.	.	.	.	.	.
.	.	.	.	.	.	.	.	.
.	.	.	.	.	.	.	.	.
.	.	.	.	.	.	.	.	.
.	.	You'll	.	.	.	.	.	.
=43	=43	=43	=43	=43	=43	=43	=43	=43
1i	F:min	ne-	.	.	76.672	.	voice	1F 1a- 1cc
.	.	-ver	.	.	.	.	.	.
.	.	run-	.	.	.	.	.	.
.	.	-a-	.	.	.	.	.	.
.	.	-way	.	.	.	.	.	.
.	.	from	.	.	.	.	.	.
.	.	you	.	C	.	.	.	.
=44	=44	=44	=44	=44	=44	=44	=44	=44
2i	F:minmaj7	_	.	.	78.475	.	voice	2F 2a- 2cc
.	.	.	.	.	.	.	.	.
2i7	F:min7	.	.	.	79.377	.	voice	2F 2a- 2cc 2ee
.	.	And	.	.	.	.	.	.
.	.	if	.	.	.	.	.	.
.	.	you	.	.	.	.	.	.
=45	=45	=45	=45	=45	=45	=45	=45	=45
1-VI	D-:maj	keep	.	.	80.279	newline	voice	1D-- 1f- 1a--
.	.	on	.	.	.	.	.	.
.	.	run-	.	.	.	.	.	.
.	.	-nin'	.	.	.	.	.	.
.	.	.	.	.	.	.	.	.
=46	=46	=46	=46	=46	=46	=46	=46	=46
1-VI	D-:maj	.	.	.	82.085	.	voice	1D-- 1f- 1a--
.	.	you'll	.	.	.	.	.	.
.	.	have	.	.	.	.	.	.
.	.	to	.	.	.	.	.	.
.	.	pay	.	.	.	.	.	.
.	.	the	.	.	.	.	.	.
.	.	price	.	A	.	.	.	.
=47	=47	=47	=47	=47	=47	=47	=47	=47
1V7	C:7	_	.	.	83.892	.	voice	1C 1e 1g 1b-
.	.	.	.	.	.	.	.	.
=48	=48	=48	=48	=48	=48	=48	=48	=48
1V7	C:7	.	.	.	85.698	.	voice	1C 1e 1g 1b-
.	.	And	.	.	.	.	.	.
.	.	don't	.	.	.	.	.	.
.	.	it	.	.	.	.	.	.
.	.	seem	.	.	.	.	.	.
.	.	like	.	A	.	.	.	.
=49	=49	=49	=49	=49	=49	=49	=49	=49
*>Letter>C	*>Letter>C	*>Letter>C	*>Letter>C	*>Letter>C	*>Letter>C	*>Letter>C	*>Letter>C	*>Letter>C
*>Label>Chorus	*>Label>Chorus	*>Label>Chorus	*>Label>Chorus	*>Label>Chorus	*>Label>Chorus	*>Label>Chorus	*>Label>Chorus	*>Label>Chorus
1-III	A-:maj	Kicks	Kicks	.	87.505	newline	voice	1A-- 1cc- 1ee--
.	.	just	just	.	.	.	.	.
.	.	keep	keep	.	.	.	.	.
.	.	get-	get-	.	.	.	.	.
.	.	-tin'	-tin'	.	.	.	.	.
=50	=50	=50	=50	=50	=50	=50	=50	=50
1-VI	D-:maj	har-	har-	.	89.325	.	voice	1D-- 1f- 1a--
.	.	-der	-der	.	.	.	.	.
.	.	to	to	.	.	.	.	.
.	.	find	find	A	.	.	.	.
.	.	.	.	.	.	.	.	.
.	.	and	and	.	.	.	.	.
.	.	all	all	.	.	.	.	.
.	.	your	your	.	.	.	.	.
=51	=51	=51	=51	=51	=51	=51	=51	=51
1-III	A-:maj	kicks	kicks	.	91.145	.	voice	1A-- 1cc- 1ee--
.	.	ain't	ain't	.	.	.	.	.
.	.	bring-	bring-	.	.	.	.	.
.	.	-in'	-in'	.	.	.	.	.
=52	=52	=52	=52	=52	=52	=52	=52	=52
1-VI	D-:maj	you	you	.	92.966	.	voice	1D-- 1f- 1a--
.	.	piece	piece	.	.	.	.	.
.	.	of	of	.	.	.	.	.
.	.	mind	mind	A	.	.	.	.
.	.	.	.	.	.	.	.	.
.	.	Be-	Be-	.	.	.	.	.
.	.	-fore	-fore	.	.	.	.	.
.	.	you	you	.	.	.	.	.
=53	=53	=53	=53	=53	=53	=53	=53	=53
1-III	A-:maj	find	find	.	94.786	newline	voice	1A-- 1cc- 1ee--
.	.	out	out	.	.	.	.	.
.	.	it's	it's	.	.	.	.	.
.	.	too	too	.	.	.	.	.
.	.	late	late	B	.	.	.	.
=54	=54	=54	=54	=54	=54	=54	=54	=54
1-III	A-:maj	.	.	.	96.626	.	voice	1A-- 1cc- 1ee--
.	.	girl	girl	.	.	.	.	.
.	.	you	you	.	.	.	.	.
.	.	be-	be-	.	.	.	.	.
.	.	-tter	-tter	.	.	.	.	.
.	.	get	get	.	.	.	.	.
=55	=55	=55	=55	=55	=55	=55	=55	=55
1V7	C:7	straight	straight	B	98.466	.	voice	1C 1e 1g 1b-
=56	=56	=56	=56	=56	=56	=56	=56	=56
1V7	C:7	_	_	.	100.306	.	voice	1C 1e 1g 1b-
.	.	No	.	.	.	.	.	.
.	.	you	.	.	.	.	.	.
.	.	don't	.	.	.	.	.	.
.	.	need	.	.	.	.	.	.
=57	=57	=57	=57	=57	=57	=57	=57	=57
*>Letter>D	*>Letter>D	*>Letter>D	*>Letter>D	*>Letter>D	*>Letter>D	*>Letter>D	*>Letter>D	*>Letter>D
*>Label>Bridge	*>Label>Bridge	*>Label>Bridge	*>Label>Bridge	*>Label>Bridge	*>Label>Bridge	*>Label>Bridge	*>Label>Bridge	*>Label>Bridge
1I	F:maj	kicks	.	.	102.146	newline	voice	1F 1a 1cc
.	.	.	.	.	.	.	.	.
=58	=58	=58	=58	=58	=58	=58	=58	=58
1I	F:maj	.	.	.	104.062	.	voice	1F 1a 1cc
.	.	To	.	.	.	.	.	.
.	.	help	.	.	.	.	.	.
.	.	you	.	.	.	.	.	.
=59	=59	=59	=59	=59	=59	=59	=59	=59
1vi	D:min	face	.	.	105.979	.	voice	1D- 1f- 1a-
.	.	.	.	.	.	.	.	.
.	.	the	.	.	.	.	.	.
.	.	world	.	.	.	.	.	.
.	.	each	.	.	.	.	.	.
.	.	day	.	C	.	.	.	.
=60	=60	=60	=60	=60	=60	=60	=60	=60
1vi	D:min	_	.	.	107.895	.	voice	1D- 1f- 1a-
.	.	.	.	.	.	.	.	.
.	.	.	.	.	.	.	.	.
.	.	That	.	.	.	.	.	.
.	.	road	.	.	.	.	.	.
.	.	_	.	.	.	.	.	.
=61	=61	=61	=61	=61	=61	=61	=61	=61
1IV	B-:maj	goes	.	.	109.811	newline	voice	1B- 1dd 1ff
.	.	no-	.	.	.	.	.	.
.	.	-where	.	.	.	.	.	.
.	.	.	.	.	.	.	.	.
=62	=62	=62	=62	=62	=62	=62	=62	=62
1IV	B-:maj	.	.	.	111.698	.	voice	1B- 1dd 1ff
.	.	I'm	.	.	.	.	.	.
.	.	gon-	.	.	.	.	.	.
.	.	-na	.	.	.	.	.	.
=63	=63	=63	=63	=63	=63	=63	=63	=63
1V	C:maj	help	.	.	113.584	.	voice	1C 1e 1g
.	.	you	.	.	.	.	.	.
.	.	find	.	.	.	.	.	.
.	.	your-	.	.	.	.	.	.
.	.	-self	.	.	.	.	.	.
=64	=64	=64	=64	=64	=64	=64	=64	=64
1V	C:maj	_	.	.	115.47	.	voice	1C 1e 1g
.	.	.	.	.	.	.	.	.
.	.	a-	.	.	.	.	.	.
.	.	-no-	.	.	.	.	.	.
.	.	-ther	.	.	.	.	.	.
.	.	way	.	C	.	.	.	.
=65	=65	=65	=65	=65	=65	=65	=65	=65
*>Letter>C	*>Letter>C	*>Letter>C	*>Letter>C	*>Letter>C	*>Letter>C	*>Letter>C	*>Letter>C	*>Letter>C
*>Label>Chorus	*>Label>Chorus	*>Label>Chorus	*>Label>Chorus	*>Label>Chorus	*>Label>Chorus	*>Label>Chorus	*>Label>Chorus	*>Label>Chorus
1-III	A-:maj	_	Kicks	.	117.356	newline	voice	1A-- 1cc- 1ee--
.	.	.	just	.	.	.	.	.
.	.	.	keep	.	.	.	.	.
.	.	.	get-	.	.	.	.	.
.	.	.	-tin'	.	.	.	.	.
=66	=66	=66	=66	=66	=66	=66	=66	=66
1-VI	D-:maj	.	har-	.	119.193	.	voice	1D-- 1f- 1a--
.	.	Oh	-der	.	.	.	.	.
.	.	.	to	.	.	.	.	.
.	.	you	find	A	.	.	.	.
.	.	don't	.	.	.	.	.	.
.	.	need	and	.	.	.	.	.
.	.	_	all	.	.	.	.	.
.	.	kicks	your	.	.	.	.	.
=67	=67	=67	=67	=67	=67	=67	=67	=67
1-III	A-:maj	.	kicks	.	121.03	.	voice	1A-- 1cc- 1ee--
.	.	girl	.	.	.	.	.	.
.	.	_	ain't	.	.	.	.	.
.	.	_	.	.	.	.	.	.
.	.	.	bring-	.	.	.	.	.
.	.	.	-in'	.	.	.	.	.
=68	=68	=68	=68	=68	=68	=68	=68	=68
1-VI	D-:maj	.	you	.	122.868	.	voice	1D-- 1f- 1a--
.	.	.	piece	.	.	.	.	.
.	.	.	of	.	.	.	.	.
.	.	.	mind	A	.	.	.	.
.	.	Just	.	.	.	.	.	.
.	.	need	Be-	.	.	.	.	.
.	.	.	-fore	.	.	.	.	.
.	.	help	you	.	.	.	.	.
=69	=69	=69	=69	=69	=69	=69	=69	=69
1-III	A-:maj	.	find	A	124.705	newline	voice	1A-- 1cc- 1ee--
.	.	girl	.	.	.	.	.	.
.	.	.	out	.	.	.	.	.
.	.	_	.	.	.	.	.	.
.	.	_	it's	.	.	.	.	.
.	.	_	.	.	.	.	.	.
.	.	_	too	.	.	.	.	.
.	.	.	late	B	.	.	.	.
=70	=70	=70	=70	=70	=70	=70	=70	=70
1-III	A-:maj	.	.	.	126.54	.	voice	1A-- 1cc- 1ee--
.	.	girl	girl	.	.	.	.	.
.	.	you	you	.	.	.	.	.
.	.	be-	be-	.	.	.	.	.
.	.	-tter	-tter	.	.	.	.	.
.	.	get	get	.	.	.	.	.
=71	=71	=71	=71	=71	=71	=71	=71	=71
1V7	C:7	straight	straight	B	128.374	.	voice	1C 1e 1g 1b-
=72	=72	=72	=72	=72	=72	=72	=72	=72
1V7	C:7	_	_	.	130.209	.	voice	1C 1e 1g 1b-
.	.	don't	.	.	.	.	.	.
.	.	it	.	.	.	.	.	.
.	.	seem	.	.	.	.	.	.
.	.	like	.	A	.	.	.	.
=73	=73	=73	=73	=73	=73	=73	=73	=73
*>Letter>C	*>Letter>C	*>Letter>C	*>Letter>C	*>Letter>C	*>Letter>C	*>Letter>C	*>Letter>C	*>Letter>C
*>Label>Fadeout	*>Label>Fadeout	*>Label>Fadeout	*>Label>Fadeout	*>Label>Fadeout	*>Label>Fadeout	*>Label>Fadeout	*>Label>Fadeout	*>Label>Fadeout
1-III	A-:maj	.	Kicks	.	132.044	newline	voice	1A-- 1cc- 1ee--
.	.	.	just	.	.	.	.	.
.	.	.	keep	.	.	.	.	.
.	.	.	get-	.	.	.	.	.
.	.	.	-tin'	.	.	.	.	.
=74	=74	=74	=74	=74	=74	=74	=74	=74
1-VI	D-:maj	.	har-	.	133.864	.	voice	1D-- 1f- 1a--
.	.	Oh	-der	.	.	.	.	.
.	.	.	to	.	.	.	.	.
.	.	you	find	A	.	.	.	.
.	.	don't	.	.	.	.	.	.
.	.	need	and	.	.	.	.	.
.	.	.	all	.	.	.	.	.
.	.	kicks	your	.	.	.	.	.
=75	=75	=75	=75	=75	=75	=75	=75	=75
1-III	A-:maj	.	kicks	.	135.685	.	voice	1A-- 1cc- 1ee--
.	.	girl	.	.	.	.	.	.
.	.	.	ain't	.	.	.	.	.
.	.	_	.	.	.	.	.	.
.	.	_	bring-	.	.	.	.	.
.	.	_	.	.	.	.	.	.
.	.	_	.	.	.	.	.	.
.	.	.	-in'	.	.	.	.	.
=76	=76	=76	=76	=76	=76	=76	=76	=76
1-VI	D-:maj	.	you	.	137.506	.	voice	1D-- 1f- 1a--
.	.	Oh	piece	.	.	.	.	.
.	.	.	of	.	.	.	.	.
.	.	you	mind	A	.	.	.	.
.	.	just	.	.	.	.	.	.
.	.	need	Be-	.	.	.	.	.
.	.	.	-fore	.	.	.	.	.
.	.	help	you	.	.	.	.	.
=77	=77	=77	=77	=77	=77	=77	=77	=77
1-III	A-:maj	.	find	A	139.326	newline	voice	1A-- 1cc- 1ee--
.	.	.	out	.	.	.	.	.
.	.	.	it's	.	.	.	.	.
.	.	.	too	.	.	.	.	.
.	.	.	late	B	.	.	.	.
=78	=78	=78	=78	=78	=78	=78	=78	=78
1-III	A-:maj	.	.	.	140.886	.	voice	1A-- 1cc- 1ee--
.	.	.	girl	.	.	.	.	.
.	.	.	you	.	.	.	.	.
.	.	.	be-	.	.	.	.	.
.	.	.	-tter	.	.	.	.	.
.	.	.	get	.	.	.	.	.
=79	=79	=79	=79	=79	=79	=79	=79	=79
1V7	C:7	.	straight	B	142.446	.	voice	1C 1e 1g 1b-
=80	=80	=80	=80	=80	=80	=80	=80	=80
1V7	C:7	.	_	.	144.006	.	voice	1C 1e 1g 1b-
1r;	N	.	.	.	145.566	.	r	1r;
1r;	N	.	.	.	149.316	.	r	1r;
*-	*-	*-	*-	*-	*-	*-	*-	*-
!!!BillboardChartDate: 1966/06/04
!!!BillboardPeak: 4
!!!BillboardWeeksOnChart: 14
!!!COC: Paul Revere & The Raiders
!!!ENC: Nathaniel Condit-Schultz
!!!EST: Awating manual error checking and editing.
!!!OTL: Kicks
!!!RDF**harte: Chris Harte's syntax, used by MIREX
!!!RDF**harmony: **recip + pitch class of root + harmonic quality
!!!RDF**leadinstrument: original McGill primary instrumentation annotation
!!!RDF**phrase: newline = linebreak in original McGill transcription
!!!RDF**timestamp: McGill audio timestamp in seconds
!!!RDT: 2017/01/12/
!!!SampleActualRank: 14
!!!SampleID#: 1181
!!!SampleTargetRank: 14
!!!MBID: daf3db61-0da0-4c6f-b588-326fe3cd415d
